X:1
T:After the Mist and Shadow
T:Kate M. Preston
T:After the Mist and Shadow
T:Public Domain
T:Public Domain
C:Kate M. Preston
Z:Public Domain
%%score ( 1 2 ) ( 3 4 )
L:1/8
M:6/8
K:Bb
V:1 treble 
V:2 treble 
V:3 bass 
V:4 bass 
V:1
 [DF][^C=E][DF] [CG]2 [CE] | [DF]3 [Fd]2 z | [Ed][Ec][EG] [EA]2 [Ec] | [DB]3- [DB]2 z | %4
w: 1.~Af- ter the mist and|sha- dow,|Af- ter the drear- y|night, *|
w: 2.~Af- ter the thorn- y|path- way,|Af- ter the storms we|meet, *|
w: 3.~Af- ter the cares and|tri- als,|Af- ter the toils and|tears, *|
 [DF][^C=E][DF] [CG]2 [CE] | [DF]3 [Fd]2 z | [=Ec][Ed][Ec] [EG]2 [Ec] | ([Fc-]3 [Ec]2) z | %8
w: Af- ter the sleep- less|watch- ing,|Com- eth the morn- ing|light; *|
w: Af- ter the heart’s deep|long- ing,|Joy and com- mun- ion|sweet; *|
w: Af- ter the time of|sow- ing,|Reap- ing thro’ end- less|years; *|
 [Ec][D=B][Ec] [Fd]2 [Ec] | [DB]3 [DF]2 z | G[^FA][GB] [Ad]2 [Fc] | [GB]3- [GB]2 z | %12
w: Beau- ti- ful, soft and|ten- der,|Lead- ing the soul a-|O- *|
w: Af- ter the wear- y|con- flict,|Rest in the Sav- ior’s|O- *|
w: Af- ter the pil- grim|jour- ney,|Rap- ture that ne’er shall|O- *|
 [=EB][EG][EA] (BA)[EB] | [Fd]3 [FB]2 z | [DF][DG][DB] [Fd]2 [Ec] | [DB]3- [DB]2 z |] %16
w: ver the si- lent * riv-|In- to|the land of song. *||
w: ver the si- lent * riv-|Safe in|the home a- bove. *||
w: ver the si- lent * riv-|Rest in|the land of peace. *||
V:2
 x6 | x6 | x6 | x6 | x6 | x6 | x6 | x6 | x6 | x6 | G x5 | x6 | x3 =E2 x | x6 | x6 | x6 |] %16
w: ||||||||||long,||er,||||
w: ||||||||||love,||er,||||
w: ||||||||||cease,||er,||||
V:3
 [B,,F,][B,,G,][B,,F,] [B,,=E,]2 [B,,G,] | (G,2 B,) [B,,B,]2 z | %2
 [F,A,][F,A,][F,B,] [F,C]2 [F,,A,] | [B,,B,]3- [B,,B,]2 z | %4
 [B,,F,][B,,G,][B,,F,] [B,,=E,]2 [B,,G,] | (F,2 B,) [B,,B,]2 z | %6
 [C,B,][C,B,][C,B,] [C,B,]2 [C,G,] | [F,A,]3- [F,A,]2 z | [F,A,][F,^G,][F,A,] [F,A,]2 [F,A,] | %9
 [B,,B,]3 [B,,B,]2 z | [B,D][A,D][G,D] [^F,D]2 [D,D] | [G,D]3- [G,D]2 z | %12
 [G,C][G,C][G,C] [_G,C]2 [G,B,] | [F,B,]3 [B,D]2 z | B,B,[G,B,] [F,B,]2 [F,A,] | %15
 [B,,B,]3- [B,,B,]2 x |] %16
V:4
 x6 | B,,3 x3 | x6 | x6 | x6 | B,,3 x3 | x6 | x6 | x6 | x6 | x6 | x6 | x6 | x6 | B,B, x4 | x6 |] %16

